MailResources/Assets.xcassets/book-user.imageset/book-user.svg

<svg width="24" height="24" viewBox="0 0 24 24" fill="none" xmlns="http://www.w3.org/2000/svg">
<path d="M5 24C3.621 24 2.5 22.878 2.5 21.5V2C2.5 0.897 3.397 0 4.5 0H20C20.276 0 20.5 0.224 20.5 0.5C20.5 0.776 20.276 1 20 1H4.5C3.949 1 3.5 1.449 3.5 2C3.5 2.551 3.949 3 4.5 3H20.5C21.052 3 21.5 3.449 21.5 4V23C21.5 23.552 21.052 24 20.5 24H5ZM3.5 21.5C3.5 22.327 4.173 23 5 23H20.5V4H4.5C4.143 4 3.801 3.907 3.5 3.733V21.5Z" fill="black"/>
<path d="M7.5 20C7.224 20 7 19.776 7 19.5C7 16.467 9.467 14 12.5 14C15.533 14 18 16.467 18 19.5C18 19.776 17.776 20 17.5 20H7.5ZM16.972 19C16.722 16.737 14.806 15 12.5 15C10.193 15 8.277 16.737 8.027 19H16.972Z" fill="black"/>
<path d="M12.5 13.5C10.57 13.5 9 11.93 9 10C9 8.07 10.57 6.5 12.5 6.5C14.43 6.5 16 8.07 16 10C16 11.93 14.43 13.5 12.5 13.5ZM12.5 7.5C11.121 7.5 10 8.621 10 10C10 11.379 11.121 12.5 12.5 12.5C13.878 12.5 15 11.379 15 10C15 8.621 13.878 7.5 12.5 7.5Z" fill="black"/>
</svg>

<svg xmlns="http://www.w3.org/2000/svg" width="24" height="24" fill="none"><path fill="#000" d="M5 24a2.5 2.5 0 0 1-2.5-2.5V2c0-1.1.9-2 2-2H20a.5.5 0 0 1 0 1H4.5a1 1 0 0 0 0 2h16a1 1 0 0 1 1 1v19a1 1 0 0 1-1 1H5Zm-1.5-2.5c0 .83.67 1.5 1.5 1.5h15.5V4h-16c-.36 0-.7-.1-1-.27V21.5Z"/><path fill="#000" d="M7.5 20a.5.5 0 0 1-.5-.5 5.5 5.5 0 0 1 11 0 .5.5 0 0 1-.5.5h-10Zm9.47-1a4.5 4.5 0 0 0-8.94 0h8.94Zm-4.47-5.5a3.5 3.5 0 1 1 0-7 3.5 3.5 0 0 1 0 7Zm0-6a2.5 2.5 0 1 0 0 5 2.5 2.5 0 0 0 0-5Z"/></svg>
